!!!COM:	Bach, Johann Sebastian
!!!CDT:	1685/02/21/-1750/07/28/
!!!OTL@@DE:	Ein L&auml;mmelein geht und tr&auml;gt die Schuld
!!!SCT:	BWV 267
!!!PC#:	309
!!!AGN:	chorale
**kern	**kern	**kern	**kern
*ICvox	*ICvox	*ICvox	*ICvox
*Ibass	*Itenor	*Ialto	*Isoprn
*I"Bass	*I"Tenor	*I"Alto	*I"Soprano
*>[A,A,B]	*>[A,A,B]	*>[A,A,B]	*>[A,A,B]
*>norep[A,B]	*>norep[A,B]	*>norep[A,B]	*>norep[A,B]
*>A	*>A	*>A	*>A
*clefF4	*clefGv2	*clefG2	*clefG2
*k[b-e-a-d-]	*k[b-e-a-d-]	*k[b-e-a-d-]	*k[b-e-a-d-]
*A-:	*A-:	*A-:	*A-:
*M4/4	*M4/4	*M4/4	*M4/4
*met(c)	*met(c)	*met(c)	*met(c)
*MM100	*MM100	*MM100	*MM100
4A-	4c	4a-	4ee-
=1	=1	=1	=1
4D-	8d-L	4a-	4ff
.	8cJ	.	.
4E-	4B-	4g	8ee-L
.	.	.	8dd-J
4F	4f	4a-	8ccL
.	.	.	8dd-J
8GL	8B-L	4g	4ee-
8A-J	8cJ	.	.
=2	=2	=2	=2
4B-	8d-L	8fL	8dd-L
.	8fJ	8a-J	8ccJ
4E-	4e-	8a-L	4dd-
.	.	8gJ	.
4A-;	4e-;	4a-;	4cc;
4G	4e-	4b-	4b-
=3	=3	=3	=3
8A-L	4e-	4a-	4cc
8GJ	.	.	.
4F	8A-L	4a-	4dd-
.	8B-J	.	.
4C	8cL	4a-	4ee-
.	8A-J	.	.
4D-	4f	4a-	8dd-L
.	.	.	8ccJ
=4	=4	=4	=4
2E-	8B-L	4a-	8b-L
.	8cJ	.	8a-J
.	4d-	4g	4b-
4AA-;	4c;	4e-;	4a-;
=:|!	=:|!	=:|!	=:|!
*>B	*>B	*>B	*>B
4A-	4c	4e-	4a-
=5	=5	=5	=5
4G	4B-	8e-L	4b-
.	.	8fJ	.
8FL	4e-	4g	4cc
8E-J	.	.	.
4F	4A-	4f	8dd-L
.	.	.	8ccJ
4G	4B-	8fL	4b-
.	.	8e-J	.
=6	=6	=6	=6
4A-	8B-L	4e-	4cc
.	8A-J	.	.
4E-	8A-L	4d-	4b-
.	8GJ	.	.
4AA-;	4A-;	4c;	4a-;
4D-	4A-	4f	8a-L
.	.	.	8b-J
=7	=7	=7	=7
8A-L	4A-	4e-	4cc
8G-J	.	.	.
8FL	4A-	4f	4dd-
8E-J	.	.	.
8D-L	4A-	4g-	4ee-
8CJ	.	.	.
8D-L	4A-	8fL	4ff
8E-J	.	8gJ	.
=8	=8	=8	=8
4F	8A-L	8a-L	4cc
.	16B-L	8gJ	.
.	16cJJ	.	.
4BB-	4B-	8a-L	4dd
.	.	8b-J	.
4E-;	4B-;	4g;	4ee-;
8A-L	4A-	4e-	8ccL
8B-J	.	.	8dd-J
=9	=9	=9	=9
4c	8A-L	4a-	4ee-
.	8e-J	.	.
4d-	8d-L	4a-	4ff
.	8cJ	.	.
4G	4B-	4b-	8ee-L
.	.	.	8dd-J
4A	4f	4cc	4cc
=10	=10	=10	=10
4B-	2f	8ccL	2dd-
.	.	8aJ	.
4BB-	.	4b-	.
4F;	4f;	4a;	4cc;
4AA	8fL	4cc	4ff
.	8e-J	.	.
=11	=11	=11	=11
8BB-L	8d-L	4b-	4ff
8CJ	8cJ	.	.
8D-L	[4B-	8fL	4ff
8BB-J	.	8d-J	.
4G-	8B-L	8e-L	4b-
.	8AJ	8fJ	.
8FL	8B-L	4g-	4ee-
8E-J	8cJ	.	.
=12	=12	=12	=12
4F	8A	4f	4dd-
.	4B-	.	.
4FF	.	4e-	4cc
.	8A	.	.
4BB-;	4B-;	4d-;	4b-;
4BB-	8FL	4b-	4dd-
.	8GJ	.	.
=13	=13	=13	=13
8CL	4A-X	8e-L	4cc
8DJ	.	8fJ	.
4E-	8e-L	4g-	4b-
.	8d-J	.	.
4E-	4c-	8fL	4a-
.	.	8e-J	.
4D	4B-	4f	8b-L
.	.	.	8a-J
=14	=14	=14	=14
4E-	4B-	8fL	4g-
.	.	8e-J	.
4BB-	4A-	8e-L	4f
.	.	8dJ	.
4E-;	4GnX;	4e-;	4e-;
4C	4G	8e-L	4e-
.	.	8d-J	.
=15	=15	=15	=15
4F	4A-	8cL	4a-
.	.	8B-J	.
4E-	4e-	8A-L	4b-
.	.	8GJ	.
8A-L	4e-	4A-	4.cc
8GJ	.	.	.
4F	4f	4a-	.
.	.	.	8dd-
=16	=16	=16	=16
8CL	2e-	4g	4ee-
8BB-J	.	.	.
4AA-	.	2a-	8dd-L
.	.	.	8ccJ
8D-L	8fL	.	4b-
8CJ	8e-J	.	.
4BB-	4d-	4a-	8ccL
.	.	.	8dd-J
=17	=17	=17	=17
8E-L	8e-L	4a-	2b-
8D-J	8fJ	.	.
4E-	8e-L	4g	.
.	8d-J	.	.
4AA-;	4c;	4e-;	4a-;
==	==	==	==
*-	*-	*-	*-
!!!hum2abc: -Q ''
!!!title: @{PC#}. @{OTL@@DE}
!!!YOR1: 371 vierstimmige Choralges&auml;nge von Johann Sebastian Bach, 
!!!YOR2: 4th ed. by Alfred D&ouml;rffel (Leipzig: Breitkopf und H&auml;rtel, 
!!!YOR2: c.1875). 178 pp. Plate "V.A.10".  reprint: J.S. Bach, 371 Four-Part 
!!!YOR4: Chorales (New York: Associated Music Publishers, Inc., c.1940).
!!!SMS: B&H, 4th ed, Alfred D&ouml;rffel, c.1875, plate V.A.10
!!!EED:  Craig Stuart Sapp
!!!EEV:  2009/05/22
